!!!!SEGMENT: pl-cz--iii-366--003_kreith--partita-dis-andante.krn
!!!cenid: 18xx:2480
!!!COM: Kreith
!!!COM-rismID:
!!!CDT: ~1746-1803/12/23
!!!CNT: Austrian
!!!OPR: Partita Dis
!!!OTL: Andante
!!!OMV: 003
!!!PDT:
!!!AGN: Secular; Partita
!!!SMS-siglum: PL-CZ
!!!SMS-shelfmark: III-366
!!!SMS-shelfwork: 001-003 M
!!!SMS-variant:
!!!SMS-altvar:
!!!NIFC-rismSourceID: 300000644
!!!NIFC-islandoraID: pl-cz:16096
!!!URL-pdf-islandora: https://repozytorium.nifc.pl/islandora/object/pl-cz%3A16096/datastream/PDF/view
!!!URL-scan: https://polish.musicsources.pl/pl/lokalizacje/galeria/rekopisy/1153 @EN{Scan on Polish Music Herritage in Open Access Website} @PL{Skany w portalu Dziedzictwo Muzyki Polskiej w otwartym dostępie}
!!!ONB-nifc: UWAGA: części Partity: 1. Allegro, 2. Menuetto, 3. Andante, 4. Presto
!!!AIN: 2 clars 2 cor 1 fagot
!!!key:
**kern	**kern	**kern	**kern	**kern	**dynam
*part5	*part4	*part3	*part2	*part1	*part1
*staff5	*staff4	*staff3	*staff2	*staff1	*
*Icor	*Icor	*Ifagot	*Iclars	*Iclars	*
*I"Corno Secundo in Dis.	*I"Corno Imo	*I"Fagotto	*I"Clarinetto Secudo	*I"Clarinetto Primo	*
*I'cor 2	*I'cor 1	*I'fag	*I'cl 2	*I'cl 1	*
*clefG2	*clefG2	*clefF4	*clefG2	*clefG2	*
*ITrd5c9	*ITrd5c9	*	*ITrd1c2	*ITrd1c2	*
*>[A,A,B,B]	*>[A,A,B,B]	*>[A,A,B,B]	*>[A,A,B,B]	*>[A,A,B,B]	*
*k[b-e-a-]	*k[b-e-a-]	*k[b-e-]	*k[b-e-a-]	*k[b-e-a-]	*
*E-:	*E-:	*E-:	*E-:	*E-:	*
*M2/2	*M2/2	*M2/2	*M2/2	*M2/2	*
*met(c|)	*met(c|)	*met(c|)	*met(c|)	*met(c|)	*
=1	=1	=1	=1	=1	=1
*>A	*>A	*>A	*>A	*>A	*
*all\right	*	*all\right	*all\right	*all\right	*
!	!	!LO:TX:a:i:t=Andante	!	!	!
!	!	!LO:TX:t=P:problem=brak jednego bemola przy kluczu	!	!	!
!LO:TX:a:i:t=Andante	!LO:TX:t=P:problem=brak partii w źródle	!LO:TX:t=P:problem=2\right&colon; global	!LO:TX:a:i:t=Andante	!LO:TX:a:i:t=Andantte	!
*	*	*2\right	*	*	*above
!	!	!	!	!	!LO:DY:rj
2E-/	1ryy	2E-\	2g/	4b-\	p
.	.	.	.	4ee-\	.
2r	.	2r	4g/	4ee-\	.
.	.	.	4b-/	4gg\	.
=2	=2	=2	=2	=2	=2
4r	1ryy	4r	4cc\	4aa-\	.
*	*	*	*2\right	*2\right	*
!	!	!	!LO:TX:t=P:problem=2\right&colon; global	!LO:TX:t=P:problem=2\right&colon; global	!
2B-/	.	2BB-/	2a-\	2dd\	f
4e-\	.	4E-\	4g/	4ee-\	p
=3	=3	=3	=3	=3	=3
!	!	!LO:TX:a:t=1	!	!LO:TUP:a	!
!	!	!	!	!LO:TX:t=P:problem=klamra łukowa	!
1r	1ryy	1r	2r	12ee-\L	.
.	.	.	.	12gg\	.
.	.	.	.	12ff\J	.
!	!	!	!	!LO:TUP:a	!
!	!	!	!	!LO:TX:t=P:problem=klamra łukowa	!
.	.	.	.	12ee-\L	.
.	.	.	.	12dd\	.
.	.	.	.	12cc\J	.
.	.	.	4r	4b-\	.
.	.	.	8r	8r	.
.	.	.	8a-\	8cc\	.
=4	=4	=4	=4	=4	=4
4r	1ryy	4r	4.d/	4.f/	.
4B-/	.	4BB-/	.	.	.
.	.	.	8f/	8a-/	.
4E-/	.	4EE-/	4e-/	4g/	.
4r	.	4r	4r	4r	.
=5	=5	=5	=5	=5	=5
2E-/	1ryy	4r	2g/	4b-\	p
.	.	2E-\	.	4ee-\	.
2r	.	.	4g/	4ee-\	.
.	.	4r	4b-/	4gg\	.
!	!	!LO:LB:g=original	!	!LO:LB:g=original	!
=6	=6	=6	=6	=6	=6
4r	1ryy	4r	4cc\	4aa-\	.
!	!	!	!	!	!LO:DY:t=for
2B-/	.	2BB-/	2a-\	2dd\	f
4e-\	.	4E-\	4g/	4ee-\	.
!	!	!	!LO:LB:g=original	!	!
=7	=7	=7	=7	=7	=7
2r	1ryy	4E-\	4g/	8ee-\L	.
.	.	.	.	8dd\J	.
.	.	4F\	8r	8r	.
.	.	.	8g/	8b-\	.
4r	.	4G\	4e-/	8cc\L	.
.	.	.	.	8a-\	.
4B-/	.	4B-\	8F/L	8f\	.
.	.	.	8A-/J	8d\J	.
!LO:LB:g=original	!	!	!	!	!
=8	=8	=8	=8	=8	=8
2B-/	1ryy	2B-\	2A-/	2d/	.
4G/	.	4E-\	4G/	4e-/	.
4r	.	4r	4r	4r	.
=9:|!|:	=9:|!|:	=9:|!|:	=9:|!|:	=9:|!|:	=9:|!|:
*>B	*>B	*>B	*>B	*>B	*
2E-/	1ryy	4EE-/	2ee-\	2gg\	.
.	.	4E-\	.	.	.
4E-/	.	4G\	4ee-\	4gg\	.
4E-/	.	4An\	4ee-\	4gg\	.
=10	=10	=10	=10	=10	=10
!	!	!	!LO:TUP:a	!LO:TUP:a	!
!	!	!	!LO:TX:t=P:problem=klamra łukowa	!LO:TX:t=P:problem=klamra łukowa	!
2BB-/	1ryy	2B-\	12dd\L	12gg\L	.
.	.	.	12gg\	12bb-\	.
.	.	.	12ff\J	12aa\J	.
!	!	!	!LO:TUP:a	!LO:TUP:a	!
!	!	!	!LO:TX:t=P:problem=klamra łukowa	!LO:TX:t=P:problem=klamra łukowa	!
.	.	.	12gg\L	12bb-\L	.
.	.	.	12ff\	12aa\	.
.	.	.	12ee-\J	12gg\J	.
2r	.	2r	4dd\	4ff\	.
.	.	.	4r	4r	.
=11	=11	=11	=11	=11	=11
!LO:TX:a:t=2	!	!	!	!	!
0r	1ryy	4r	2cc\	2ee-\	.
.	.	4c\	.	.	.
.	.	4An\	4cc\	4ee-\	.
.	.	4F\	4cc\	4ee-\	.
=12	=12	=12	=12	=12	=12
.	1ryy	2B-\	4b-\	4dd\	.
!	!	!	!	!LO:TX:t=P:LO:N:vis=8:problem	!
.	.	.	8.cc\L	8.dd\L	.
.	.	.	32b-\LL	32dd\LL	.
.	.	.	32cc\JJJ	32ee-\JJJ	.
.	.	4BB-/	4dd\	4ff\	.
.	.	4r	4r	4r	.
!	!	!LO:LB:g=original	!	!LO:LB:g=original	!
=13	=13	=13	=13	=13	=13
2E-/	1ryy	4EE-/	2ee-\	2gg\	.
.	.	4E-\	.	.	.
4E-/	.	4G\	4ee-\	4gg\	.
4E-/	.	4An\	4ee-\	4gg\	.
!	!	!	!LO:LB:g=original	!	!
=14	=14	=14	=14	=14	=14
!	!	!	!LO:TUP:a	!LO:TUP:a	!
!	!	!	!LO:TX:t=P:problem=klamra łukowa	!LO:TX:t=P:problem=klamra łukowa	!
2BB-/	1ryy	2B-\	12dd\L	12gg\L	.
.	.	.	12gg\	12bb-\	.
.	.	.	12ff\J	12aa\J	.
*	*	*	*	*Xtuplet	*
!	!	!	!LO:TUP:a	!	!
!	!	!	!LO:TX:t=P:problem=klamra łukowa	!	!
.	.	.	12gg\L	12bb-\L	.
.	.	.	12ff\	12aa\	.
.	.	.	12ee-\J	12gg\J	.
!	!	!	!LO:TUP:a	!	!
!	!	!	!LO:TX:t=P:problem=klamra łukowa	!	!
2r	.	2r	12dd\L	12ff\L	.
.	.	.	12gg\	12bb-\	.
.	.	.	12ff\J	12aa\J	.
*	*	*	*	*tuplet	*
!	!	!	!LO:TUP:a	!LO:TUP:a	!
!	!	!	!LO:TX:t=P:problem=klamra łukowa	!LO:TX:t=P:problem=klamra łukowa	!
.	.	.	12ee-\L	12gg\L	.
.	.	.	12dd\	12ff\	.
.	.	.	12cc\J	12ee-\J	.
=15	=15	=15	=15	=15	=15
!	!	!	!LO:TUP:a	!LO:TUP:a	!
!	!	!	!LO:TX:t=P:problem=klamra łukowa	!LO:TX:t=P:problem=klamra łukowa	!
2r	1ryy	4B-\	12b-\L	12dd\L	.
.	.	.	12ee-\	12gg\	.
.	.	.	12dd\J	12ff\J	.
!	!	!	!LO:TUP:a	!LO:TX:t=P:problem=klamra łukowa	!
!	!	!	!LO:TX:t=P:problem=mixed beam	!LO:TUP:a	!
!	!	!	!LO:TX:t=P:problem=klamra łukowa	!	!
.	.	4E-\	12cc\L	12ee-\L	.
.	.	.	12b-\	12dd\	.
.	.	.	12e-/J	12cc\J	.
4r	.	4F\	4d/	4b-\	.
4e-\	.	4FF/	4c/	4a\	.
!LO:LB:g=original	!	!	!	!	!
=16	=16	=16	=16	=16	=16
*2\right	*	*	*	*	*
2f\	1ryy	2FF/	2c/	2a\	.
4B-/	.	4BB-/	4d/	4b-\	.
4r	.	4r	4r	4r	.
=17	=17	=17	=17	=17	=17
2E-/	1ryy	2E-\	2g/	4b-\	.
.	.	.	.	4ee-\	.
2r	.	2r	4g/	4ee-\	.
.	.	.	4b-/	4gg\	.
=18	=18	=18	=18	=18	=18
4r	1ryy	4r	4cc\	4aa-\	.
!	!	!	!	!	!LO:DY:t=f&colon;
2B-/	.	2BB-/	2a-\	2dd\	f
!	!	!	!LO:TX:a:t=SIC&colon;s=4a	!	!
4e-\	.	4E-\	4f/	4ee-\	p
!	!	!	!	!LO:LB:g=original	!
=19	=19	=19	=19	=19	=19
4d\	1ryy	4E-\	4g/	8ee-\L	.
.	.	.	.	8b-\J	.
4r	.	4G\	8r	8r	.
.	.	.	8g/	8b-\	.
4B-/	.	4A\	4e-/	8cc\L	.
.	.	.	.	8a-\	.
4r	.	4B-\	8F/L	8f\	.
.	.	.	8A-/J	8d\J	.
=20	=20	=20	=20	=20	=20
2B-/	1ryy	4B-\	2A-/	4e-/	.
.	.	4BB-/	.	4e-/	.
4G/	.	4E-\	4G/	4e-/	.
4A-/	.	4r	4r	4ryy	.
=:|!	=:|!	=:|!	=:|!	=:|!	=:|!
*-	*-	*-	*-	*-	*-
!!!system-decoration: [(s1,s2,s3)][(s4,s5)]
!!!RDF**dynam: p = p&colon;
!!!EED: Andrzej Borzym
!!!EEV: 2021-06-24
!!!ENC: Tomasz Grochalski
!!!END: 2021-06-18
